packages/core/src/svgs/tokens/branded/WHITE.svg

<svg width="24" height="24" viewBox="0 0 24 24" fill="none" xmlns="http://www.w3.org/2000/svg">
<path d="M17 2.93753C15.7499 2.93753 13.5624 4.18754 12.3125 6.06253C11.0625 4.18754 9.49993 2.93753 6.99999 2.93753C5.125 2.93753 2 4.18754 2 8.56256C2 12.9375 9.49993 18.5625 12.3125 21.0625C15.125 18.5625 22 12.9375 22 8.56256C22 4.18754 19.5 2.93753 17 2.93753Z" fill="#F1F1F1"/>
<path d="M14.312 4.02504C15.2933 3.33754 16.2996 2.93753 16.9996 2.93753C19.4996 2.93753 21.9996 4.18754 21.9996 8.56256C21.9996 12.4375 16.6121 17.2875 13.4246 20.0812C16.462 17.225 20.7495 12.7875 20.7495 9.18745C20.7495 4.81253 18.3246 3.56254 15.9058 3.56254C15.4683 3.56254 14.9059 3.72503 14.3183 4.02504H14.312ZM12.3121 6.06253C11.0621 3.87503 9.3559 2.93753 6.9996 2.93753C5.91835 2.93753 4.42462 3.35003 3.34961 4.54378C4.17622 3.91814 5.18174 3.57419 6.21836 3.56254C8.44335 3.56254 10.1746 5.14378 11.3808 6.85628C11.5183 7.05628 11.8183 7.04378 11.9309 6.82503L12.3121 6.06253Z" fill="#DFDFDF"/>
<path d="M16.9997 6.06252C16.9997 5.06253 16.1685 4.81253 15.7496 4.81253C13.8747 4.81253 13.2498 7.18752 13.2498 7.62499C13.2498 8.25003 13.8747 8.25003 14.4997 8.25003C15.1248 8.25003 16.9997 7.31252 16.9997 6.06252ZM7.98099 6.68752C7.98099 5.85003 7.35598 5.43753 6.73098 5.43753C6.10599 5.43753 4.231 6.06252 3.91849 7.93751C3.731 9.07501 4.18725 10.4063 4.69349 11.3063C4.83724 11.5562 5.17474 11.4438 5.19974 11.1562C5.3685 9.0562 6.17473 8.5312 6.73098 8.25003C7.35598 7.93751 7.98099 7.62499 7.98099 6.68752Z" fill="white"/>
</svg>

<svg xmlns="http://www.w3.org/2000/svg" width="24" height="24" fill="none" viewBox="0 0 24 24">
    <path fill="#F1F1F1" d="M17 2.938c-1.25 0-3.438 1.25-4.687 3.125C11.063 4.188 9.5 2.938 7 2.938c-1.875 0-5 1.25-5 5.625 0 4.374 7.5 10 10.313 12.5 2.812-2.5 9.687-8.125 9.687-12.5s-2.5-5.625-5-5.625"/>
    <path fill="#DFDFDF" d="M14.312 4.025C15.293 3.338 16.3 2.938 17 2.938c2.5 0 5 1.25 5 5.625 0 3.874-5.388 8.725-8.575 11.518 3.037-2.856 7.325-7.293 7.325-10.894 0-4.374-2.425-5.624-4.844-5.624-.438 0-1 .162-1.588.462zm-2 2.038C11.062 3.875 9.356 2.938 7 2.938c-1.082 0-2.575.412-3.65 1.606a4.84 4.84 0 0 1 2.868-.981c2.225 0 3.957 1.58 5.163 3.293a.32.32 0 0 0 .55-.031z"/>
    <path fill="#fff" d="M17 6.063c0-1-.831-1.25-1.25-1.25-1.875 0-2.5 2.375-2.5 2.812 0 .625.625.625 1.25.625S17 7.313 17 6.063m-9.019.625c0-.838-.625-1.25-1.25-1.25s-2.5.625-2.813 2.5c-.187 1.137.27 2.468.775 3.368.144.25.482.138.507-.15.168-2.1.975-2.625 1.531-2.906.625-.312 1.25-.625 1.25-1.562"/>
</svg>
